img/svg/upload.svg

<svg width="22" height="22" viewBox="0 0 22 22" xmlns="http://www.w3.org/2000/svg">
<path fill-rule="evenodd" clip-rule="evenodd" d="M10.2929 0.542893C10.6834 0.152369 11.3166 0.152369 11.7071 0.542893L16.2071 5.04289C16.5976 5.43342 16.5976 6.06658 16.2071 6.45711C15.8166 6.84763 15.1834 6.84763 14.7929 6.45711L12 3.66421V16.25C12 16.8023 11.5523 17.25 11 17.25C10.4477 17.25 10 16.8023 10 16.25V3.66421L7.20711 6.45711C6.81658 6.84763 6.18342 6.84763 5.79289 6.45711C5.40237 6.06658 5.40237 5.43342 5.79289 5.04289L10.2929 0.542893ZM1.25 13C1.80228 13 2.25 13.4477 2.25 14V17.75C2.25 18.8546 3.14543 19.75 4.25 19.75H17.75C18.8546 19.75 19.75 18.8546 19.75 17.75V14C19.75 13.4477 20.1977 13 20.75 13C21.3023 13 21.75 13.4477 21.75 14V17.75C21.75 19.9591 19.9591 21.75 17.75 21.75H4.25C2.04086 21.75 0.25 19.9591 0.25 17.75V14C0.25 13.4477 0.697715 13 1.25 13Z" fill="#9A9CA5"/>
</svg>

<svg width="22" height="22" xmlns="http://www.w3.org/2000/svg"><path fill-rule="evenodd" clip-rule="evenodd" d="M10.293.543a1 1 0 011.414 0l4.5 4.5a1 1 0 01-1.414 1.414L12 3.664V16.25a1 1 0 11-2 0V3.664L7.207 6.457a1 1 0 01-1.414-1.414l4.5-4.5zM1.25 13a1 1 0 011 1v3.75a2 2 0 002 2h13.5a2 2 0 002-2V14a1 1 0 112 0v3.75a4 4 0 01-4 4H4.25a4 4 0 01-4-4V14a1 1 0 011-1z" fill="#9A9CA5"/></svg>
